X:1
T:Title
%%score 1 2
L:1/8
Q:1/4=135
M:3/4
K:Bb
V:1 treble nm="Grand Piano, Soprano"
V:2 bass nm="Choir Pad, Carabobo, 11.8.11.8 D"
V:1
 [DF]2 [DF]2 [B,D]2 | [CE]2 [DF]2 [Fd]2 | [^Fc]2 [Gc]2 [GB]2 | [EG]2 [DF]4 | [DF]2 [DB]4 | %5
w: By~Hubert~Platt~Main,~1882 * *|||||
 [EB][EB] [FB]2 [Fc]2 | [Fd]2 [Fc]4 | [_Ad]2 [Ge]4 | [Ed][Ec] [Dd]2 [Fc]2 | [FB]2 [Gc]2 [GB]2 | %10
w: |||||
 [EG]2 [DF]4 | F2 [EG]2 [EB]2- | [EB][EG] [DF]2 [Fd]2 | [Ec]2 [DB]4 | [DB]2 [Fc]3 [Fd] | %15
w: |||||
 [Fe]2 [Fd]4 | [Fc][FB] [Fc]3 [Fd] | [Fe]2 [Fd]4 | [DF]2 [DB]4 | [EB][EB] [FB]2 [Fc]2 | %20
w: |||||
 [Fd]2 [Fc]4 | [_Ad]2 [Ge]4 | [Ed][Ec] [Dd]2 [Fc]2 | [FB]2 [Gc]2 [GB]2 | [EG]2 [DF]4 | %25
w: |||||
 [DF]2 [EG]4 | [FB][EG] [DF]2 [DB]2 | [Ec]2 [DB]4- | [DB]4 z2 |] %29
w: ||||
V:2
 [B,,B,]2 [B,,B,]2 [B,,F,]2 | [B,,F,]2 [B,,B,]2 [B,,B,]2 | [D,B,]2 [E,B,]2 [E,B,]2 | %3
 [E,B,]2 [B,,B,]4 | [B,,B,]2 [B,,F,]4 | [E,G,][E,G,] [D,B,]2 [C,A,]2 | [B,,B,]2 [F,A,]4 | %7
 B,2 [E,B,]4 | [F,A,][F,A,] [B,,B,]2 [C,A,]2 | [D,B,]2 [E,B,]2 [E,B,]2 | [E,B,]2 [B,,B,]4 | %11
 [D,B,]2 [E,B,]2 [E,G,]2- | [E,G,][E,B,] [F,B,]2 [F,B,]2 | [F,A,]2 [B,,B,]4 | %14
 [B,,B,]2 [F,A,]3 [F,B,] | [F,C]2 B,4 | [D,B,][D,B,] [F,A,]3 [F,B,] | [F,C]2 B,4 | %18
 [B,,B,]2 [B,,F,]4 | [E,G,][E,G,] [D,B,]2 [C,A,]2 | [B,,B,]2 [F,A,]4 | B,2 [E,B,]4 | %22
 [F,A,][F,A,] [B,,B,]2 [C,A,]2 | [D,B,]2 [E,B,]2 [E,B,]2 | [E,B,]2 [B,,B,]4 | [B,,B,]2 [E,B,]4 | %26
 [D,B,][E,B,] [F,A,]2 F,2 | [F,A,]2 [B,,B,]4- | [B,,B,]4 z2 |] %29

